X:126
T:Boating on Lough Rea
B:Terry "Cuz" Teahan "Sliabh Luachra on Parade" 1980
Z:Patrick Cavanagh
M:3/4
L:1/8
R:Waltz
K:D
A2 | F4F2 | E4A2 | B4B2 | A4D2 | F4 E/G/E | D4E2 | (D6 | D4)A2 | 
B2cBA2 | B4 c/e/c | d3fe2 | d2c2B2 | A4(F2 | F2)E2D2 | (E6 | E4)A2 | 
B2cBA2 | B4 c/e/c | d4e2 | d2c2B2 | A4d2 | F2 E/G/E D2 | (E6 | E/)G/E D2E2 | 
F4F2 | E4D2 | B4cB | A4D2 | F4GE | D4E2 | (D6 | D4) :|| 

